X:27
T:Ne Tyanee Kota Za Hvost (simple version)
T:(Don't pull cat's tail)
M:4/4
L:1/8
R:Polka
Q:150
K:Edor
|:EG EG EGA2|AG FE GA B2|EG EG EGA2|AG FE DF E2:|
|:BGA2 AFG2|A cBAGFED|BGA2 AFG2|EG FE DF E2:|

